X:23
T:Deery from Derry
R:Waltz
C:Jim McGraw
O:Co. Fermanagh, Ireland
S:http://www.cranfordpub.com/recordings/mcgraw.htm
D:Melodious Accord, Jim McGraw
Z:psc
H:During a music session one night in Enniskillen a member of the audience called Tony Deery requested some O'Carolan music. He and I talked about how O'Carolan visited all the big houses around Ireland and in return for their hospitality he would compose a tune in honour of his hosts. "Would it be possible to have a tune composed in our name" Asked Deery. "Surely I'll give it a try" I replied. This tune was composed with an O'Carolan type feel to it.
L:1/8
Q:288
M:3/4
K:D
EG|F3 E D2|F2 G2 A2|B2 d2 B2|A4-AG|
F3 E D2|F2 G2 A2|B2 BA GF|E4 EG|
F3 E D2|F2 G2 A2|B2 d2 B2|A4 Bc|
d2 A2 F2|G2 E2 C2|D3 E DC|D4:|
|:(3ABc|d3 e dB|c2 B2 c2|d2 A2 G2|F3 E D2|
g2 Ba ge|f3 e d2|B3 c df|e2 c2 (3ABc|
d3 e dB|c2 B2 c2|d2 A2 G2|F3 E D2|
[1gf ed cB|AB cA Bc|d3 e dc|d4:|
[2gf ed cB|AG FE DC|D2 F2 A2|d4|]
